static/logo.svg

<svg width="72" height="72" viewBox="0 0 72 72" fill="none" xmlns="http://www.w3.org/2000/svg">
<rect x="0.5" y="0.5" width="71" height="71" rx="35.5" stroke="url(#paint0_linear_72_2)" stroke-opacity="0.5"/>
<g style="mix-blend-mode:plus-lighter" opacity="0.83">
<path d="M46.4995 50.087V40.2261H48.1477L53.2894 47.3963L53.2613 40.2261H54.8531V50.087H53.3458L48.0632 42.7195L48.0913 50.087H46.4995Z" fill="white"/>
</g>
<g style="mix-blend-mode:plus-lighter" opacity="0.83">
<path d="M37.1934 50.087V40.2261H44.2509V41.663H38.8838V44.4099H42.6309V45.8186H38.8838V48.6501H44.3073V50.087H37.1934Z" fill="white"/>
</g>
<g style="mix-blend-mode:plus-lighter" opacity="0.83">
<path d="M28.147 48.6219H30.1051C30.6967 48.6219 31.232 48.4717 31.711 48.1711C32.1899 47.8612 32.5703 47.4433 32.852 46.9174C33.1338 46.3915 33.2746 45.8045 33.2746 45.1565C33.2746 44.4991 33.1338 43.9122 32.852 43.3957C32.5703 42.8697 32.1899 42.4565 31.711 42.156C31.232 41.8461 30.6967 41.6911 30.1051 41.6911H28.147V48.6219ZM26.4565 50.087V40.2261H30.0628C30.7765 40.2261 31.4339 40.3529 32.035 40.6064C32.636 40.86 33.1572 41.2122 33.5986 41.663C34.0494 42.1043 34.3969 42.6256 34.6411 43.2266C34.8852 43.8183 35.0073 44.4616 35.0073 45.1565C35.0073 45.8515 34.8852 46.4995 34.6411 47.1005C34.3969 47.6922 34.0494 48.2134 33.5986 48.6642C33.1572 49.1056 32.636 49.453 32.035 49.7066C31.4339 49.9602 30.7765 50.087 30.0628 50.087H26.4565Z" fill="white"/>
</g>
<g style="mix-blend-mode:plus-lighter" opacity="0.83">
<path d="M17.1504 50.087V40.2261H24.208V41.663H18.8408V44.4099H22.588V45.8186H18.8408V48.6501H24.2643V50.087H17.1504Z" fill="white"/>
</g>
<g style="mix-blend-mode:plus-lighter" opacity="0.83">
<path d="M53.9414 36V27.6042H50.645V26.1391H58.9281V27.6042H55.6318V36H53.9414Z" fill="white"/>
</g>
<g style="mix-blend-mode:plus-lighter" opacity="0.83">
<path d="M40.6138 36V26.1391H42.3042V30.2807H47.2065V26.1391H48.8969V36H47.2065V31.788H42.3042V36H40.6138Z" fill="white"/>
</g>
<g style="mix-blend-mode:plus-lighter" opacity="0.83">
<path d="M33.7144 36.155C33.0006 36.155 32.3385 36.0235 31.7281 35.7605C31.1177 35.4976 30.5777 35.136 30.1081 34.6758C29.6479 34.2063 29.2864 33.6663 29.0234 33.0558C28.7698 32.436 28.6431 31.7739 28.6431 31.0696C28.6431 30.3652 28.7698 29.7078 29.0234 29.0974C29.2864 28.4776 29.6479 27.9376 30.1081 27.4774C30.5683 27.0078 31.1036 26.6416 31.714 26.3786C32.3245 26.1157 32.9865 25.9842 33.7003 25.9842C34.4892 25.9842 35.2311 26.1344 35.926 26.435C36.6304 26.7355 37.2173 27.1722 37.6869 27.745L36.5036 28.8016C36.1655 28.379 35.7523 28.0597 35.2639 27.8437C34.7756 27.6183 34.2544 27.5056 33.7003 27.5056C33.2213 27.5056 32.7799 27.5948 32.3761 27.7732C31.9723 27.9517 31.6201 28.2052 31.3196 28.5339C31.0285 28.8532 30.7984 29.2289 30.6293 29.6609C30.4603 30.0929 30.3758 30.5624 30.3758 31.0696C30.3758 31.5767 30.4603 32.051 30.6293 32.4923C30.7984 32.9243 31.0332 33.3 31.3337 33.6193C31.6436 33.9386 32.0005 34.1922 32.4043 34.38C32.8081 34.5584 33.2542 34.6477 33.7425 34.6477C34.2685 34.6477 34.7427 34.5397 35.1653 34.3237C35.5879 34.0983 35.9354 33.7883 36.2078 33.3939C36.4895 32.9995 36.6632 32.5581 36.729 32.0697H33.7989V30.6188H38.518V31.1682C38.518 31.8819 38.3959 32.5393 38.1518 33.1403C37.917 33.7414 37.5836 34.272 37.1516 34.7322C36.7196 35.183 36.2125 35.5351 35.6302 35.7887C35.0479 36.0329 34.4093 36.155 33.7144 36.155Z" fill="white"/>
</g>
<g style="mix-blend-mode:plus-lighter" opacity="0.83">
<path d="M24.8354 36V26.1391H26.5259V36H24.8354Z" fill="white"/>
</g>
<g style="mix-blend-mode:plus-lighter" opacity="0.83">
<path d="M13.9072 36V26.1391H15.5554L20.6971 33.3094L20.669 26.1391H22.2608V36H20.7535L15.4709 28.6325L15.4991 36H13.9072Z" fill="white"/>
</g>
<defs>
<linearGradient id="paint0_linear_72_2" x1="10.5652" y1="10.5652" x2="61.4348" y2="61.4348" gradientUnits="userSpaceOnUse">
<stop stop-color="white"/>
<stop offset="0.4" stop-color="white" stop-opacity="0"/>
<stop offset="0.6" stop-color="white" stop-opacity="0"/>
<stop offset="1" stop-color="white"/>
</linearGradient>
</defs>
</svg>

<svg xmlns="http://www.w3.org/2000/svg" width="72" height="72" fill="none" viewBox="0 0 72 72"><rect width="71" height="71" x=".5" y=".5" stroke="url(#a)" stroke-opacity=".5" rx="35.5"/><path fill="#fff" d="M46.5 50.087v-9.86h1.648l5.141 7.17-.028-7.17h1.592v9.86h-1.507l-5.283-7.368.028 7.368zm-9.307 0v-9.86h7.058v1.436h-5.367v2.747h3.747v1.409h-3.747v2.831h5.423v1.437zm-9.046-1.465h1.958q.888 0 1.606-.45.719-.465 1.141-1.255a3.7 3.7 0 0 0 .423-1.76q0-.987-.423-1.761a3.23 3.23 0 0 0-1.141-1.24 2.9 2.9 0 0 0-1.606-.465h-1.958zm-1.69 1.465v-9.86h3.606q1.07 0 1.972.38a4.7 4.7 0 0 1 1.564 1.056q.675.662 1.042 1.564.366.887.366 1.93t-.366 1.944a4.8 4.8 0 0 1-1.042 1.563 4.9 4.9 0 0 1-1.564 1.043 5 5 0 0 1-1.972.38zm-9.307 0v-9.86h7.058v1.436h-5.367v2.747h3.747v1.409h-3.747v2.831h5.423v1.437zM53.941 36v-8.396h-3.296V26.14h8.283v1.465h-3.296V36zm-13.327 0v-9.86h1.69v4.14h4.902v-4.14h1.69V36h-1.69v-4.212h-4.902V36zm-6.9.155a5 5 0 0 1-1.986-.395 5.3 5.3 0 0 1-1.62-1.084 5.3 5.3 0 0 1-1.085-1.62 5.2 5.2 0 0 1-.38-1.986q0-1.057.38-1.973.395-.93 1.085-1.62a5 5 0 0 1 1.606-1.098 5 5 0 0 1 1.986-.395q1.184 0 2.226.451 1.056.45 1.76 1.31l-1.182 1.057a3.25 3.25 0 0 0-1.24-.958 3.7 3.7 0 0 0-1.564-.338q-.718 0-1.324.267a3.1 3.1 0 0 0-1.056.76q-.437.48-.69 1.128a3.8 3.8 0 0 0-.254 1.409q0 .76.253 1.422.254.648.705 1.127.465.48 1.07.761.606.268 1.338.268.79 0 1.423-.324a2.9 2.9 0 0 0 1.043-.93q.422-.592.521-1.324h-2.93v-1.451h4.719v.55q0 1.07-.366 1.971a4.9 4.9 0 0 1-1 1.592q-.648.676-1.522 1.057a4.9 4.9 0 0 1-1.916.366M24.835 36v-9.86h1.69V36zm-10.928 0v-9.86h1.648l5.142 7.17-.028-7.17h1.592V36h-1.508l-5.282-7.367.028 7.367z" opacity=".83" style="mix-blend-mode:plus-lighter"/><defs><linearGradient id="a" x1="10.565" x2="61.435" y1="10.565" y2="61.435" gradientUnits="userSpaceOnUse"><stop stop-color="#fff"/><stop offset=".4" stop-color="#fff" stop-opacity="0"/><stop offset=".6" stop-color="#fff" stop-opacity="0"/><stop offset="1" stop-color="#fff"/></linearGradient></defs></svg>
